img/advantages/02.svg

<svg width="100" height="100" viewBox="0 0 100 100" fill="none" xmlns="http://www.w3.org/2000/svg">
<path fill-rule="evenodd" clip-rule="evenodd" d="M57.4713 15.5533C57.4713 15.3151 57.3767 15.0867 57.2083 14.9183C57.0399 14.7499 56.8115 14.6553 56.5733 14.6553H31.4296C28.8099 14.6553 26.2974 15.696 24.4449 17.5484C22.5925 19.4009 21.5518 21.9134 21.5518 24.5331V74.8205C21.5518 77.4403 22.5925 79.9527 24.4449 81.8052C26.2974 83.6577 28.8099 84.6984 31.4296 84.6984H67.3492C69.9689 84.6984 72.4814 83.6577 74.3339 81.8052C76.1863 79.9527 77.227 77.4403 77.227 74.8205V70.8658L76.039 72.0505L66.3765 74.2758L66.0526 74.3085C65.6507 74.3491 65.2462 74.3559 64.8434 74.3289C63.8638 74.2892 62.902 74.0482 62.0181 73.6201C61.0602 73.1562 60.218 72.4841 59.5531 71.653C58.8882 70.8219 58.4174 69.8527 58.175 68.8163C57.9327 67.78 57.9249 66.7026 58.1522 65.6628L58.1591 65.6314L60.3197 56.3068L77.224 39.3553C77.2066 39.1441 77.115 38.945 76.964 38.794C76.7956 38.6256 76.5672 38.531 76.3291 38.531H60.1653C59.4508 38.531 58.7656 38.2472 58.2603 37.7419C57.7551 37.2367 57.4713 36.5515 57.4713 35.837V15.5533ZM28.7001 43.9661C28.7001 42.5378 29.858 41.3799 31.2863 41.3799H42.4932C43.9215 41.3799 45.0794 42.5378 45.0794 43.9661C45.0794 45.3944 43.9215 46.5523 42.4932 46.5523H31.2863C29.858 46.5523 28.7001 45.3944 28.7001 43.9661ZM28.7001 56.8968C28.7001 55.4684 29.858 54.3105 31.2863 54.3105H51.1139C52.5422 54.3105 53.7001 55.4684 53.7001 56.8968C53.7001 58.3251 52.5422 59.483 51.1139 59.483H31.2863C29.858 59.483 28.7001 58.3251 28.7001 56.8968ZM28.7 69.8284C28.7 68.4001 29.8578 67.2422 31.2862 67.2422H51.1137C52.5421 67.2422 53.7 68.4001 53.7 69.8284C53.7 71.2567 52.5421 72.4146 51.1137 72.4146H31.2862C29.8578 72.4146 28.7 71.2567 28.7 69.8284Z" fill="#9EA3B5"/>
<path d="M77.227 63.5609V46.6774L65.0252 58.9133L63.2053 66.7677C63.1425 67.0548 63.1446 67.3523 63.2116 67.6385C63.2785 67.9247 63.4085 68.1923 63.5921 68.4218C63.7757 68.6513 64.0083 68.8369 64.2728 68.965C64.5373 69.0931 64.8271 69.1605 65.121 69.1623C65.2579 69.1761 65.3959 69.1761 65.5328 69.1623L73.4351 67.3424L77.227 63.5609Z" fill="#9EA3B5"/>
<path d="M63.1597 17.6697C63.1597 17.0424 63.7896 16.6435 64.2563 17.0356C64.6512 17.3697 65.0069 17.7583 65.3104 18.2015L75.1439 32.5092C75.3658 32.8365 75.1243 33.2592 74.7392 33.2592H63.9756C63.7592 33.2592 63.5517 33.1694 63.3986 33.0096C63.2456 32.8497 63.1597 32.633 63.1597 32.4069V17.6697Z" fill="#9EA3B5"/>
<path d="M65.0252 58.9133L63.2053 66.7677C63.1425 67.0548 63.1446 67.3523 63.2116 67.6385C63.2785 67.9247 63.4085 68.1923 63.5921 68.4218C63.7757 68.6513 64.0083 68.8369 64.2728 68.965C64.5373 69.0931 64.8271 69.1605 65.121 69.1623C65.2579 69.1761 65.3959 69.1761 65.5328 69.1623L73.4351 67.3424L87.2976 53.5176L78.8302 45.0693L65.0252 58.9133Z" fill="#9EA3B5"/>
<path d="M93.3776 44.6602L87.7263 39.0088C87.3547 38.6392 86.8519 38.4316 86.3278 38.4316C85.8037 38.4316 85.3009 38.6392 84.9294 39.0088L81.7876 42.1506L90.2455 50.6084L93.3872 47.4667C93.5711 47.2819 93.7167 47.0627 93.8157 46.8215C93.9148 46.5804 93.9653 46.3221 93.9644 46.0614C93.9635 45.8008 93.9112 45.5428 93.8105 45.3024C93.7099 45.0619 93.5628 44.8437 93.3776 44.6602Z" fill="#9EA3B5"/>
</svg>

<svg width="100" height="100" viewBox="0 0 100 100" fill="none" xmlns="http://www.w3.org/2000/svg"><path fill-rule="evenodd" clip-rule="evenodd" d="M57.471 15.553a.898.898 0 00-.898-.898H31.43a9.878 9.878 0 00-9.878 9.878V74.82a9.878 9.878 0 009.878 9.878h35.92a9.878 9.878 0 009.877-9.877v-3.955l-1.188 1.184-9.663 2.226-.323.032a7.087 7.087 0 01-1.21.02 7.145 7.145 0 01-6.69-8.665l.006-.032 2.16-9.324 16.905-16.952a.898.898 0 00-.895-.824H60.165a2.694 2.694 0 01-2.694-2.694V15.553zm-28.77 28.413a2.586 2.586 0 012.585-2.586h11.207a2.586 2.586 0 010 5.172H31.286a2.586 2.586 0 01-2.586-2.586zm0 12.93a2.586 2.586 0 012.585-2.586h19.828a2.586 2.586 0 010 5.173H31.286a2.586 2.586 0 01-2.586-2.586zM28.7 69.829a2.586 2.586 0 012.586-2.586h19.828a2.586 2.586 0 110 5.173H31.286a2.586 2.586 0 01-2.586-2.587z" fill="#9EA3B5"/><path d="M77.227 63.56V46.678L65.025 58.913l-1.82 7.855a1.972 1.972 0 001.916 2.394c.137.014.275.014.412 0l7.902-1.82 3.792-3.781zM63.16 17.67c0-.628.63-1.027 1.096-.634.395.334.75.722 1.054 1.165l9.834 14.308a.48.48 0 01-.405.75H63.976a.799.799 0 01-.577-.25.872.872 0 01-.24-.602V17.67z" fill="#9EA3B5"/><path d="M65.025 58.913l-1.82 7.855a1.972 1.972 0 001.916 2.394c.137.014.275.014.412 0l7.902-1.82 13.863-13.824-8.468-8.449-13.805 13.844zM93.378 44.66l-5.652-5.651a1.983 1.983 0 00-2.797 0l-3.141 3.142 8.458 8.457 3.141-3.141a1.981 1.981 0 00-.01-2.807z" fill="#9EA3B5"/></svg>
